X: 39997
T: Three Little Boats
R: slide
M: 12/8
K: Bminor
|:F2 B B2 c|d>ed cBc|dcB B2 B|cBA F2 F|
F2 B B2 c|dcd e3|fgf edc|B3 B3:|
|:dcB B2 c|d2 e f2 f|gfe f2 f|gfe f>gf|
dcB B2 c|d2 e f3|fgf edc|B3 B3:|

